X: 1211
M: 3/8
L: 1/16
K: D
(FG) |\
|: A2 |\
(A^G)(BA)(cA) | (edcB).A2 | (dF).A.d(fe) | d2{e}dcd2 |\
(eA)ce(gf) | e2{f}e^de2 | (ce).AA(Bc) | d4 H:|
|: (FG) | .A2(FGAB) | (Ad).d.d.dd | (dcecdB) | (ABAGFG) |\
.A2(FGAB) | (Ad).d.d.d.d | (fe).e.A.B.c | d4 :|
|: B2 |\
(AB).c.d.e.f | g4z2 | e4z2 | c4z2 | A4z2 |
z4(FG) | .A2(FGAB) | (Ad).d.d.d.d | (dc).e.c(dB) | (ABAG).F.G |\
.A2(FGAB) | (Ad).d.d.d.d | (fe).e.A(Bc) | d4 "^D.C.":|

